packages/calcite-ui-icons/icons/layer-dimension-16.svg

<?xml version="1.0" encoding="UTF-8"?><svg id="icons" xmlns="http://www.w3.org/2000/svg" viewBox="0 0 16 16"><defs><style>.cls-1{fill:none;}</style></defs><rect class="cls-1" width="16" height="16"/><path d="M13.86719,1.68823s-1.42273-.67395-3.16119-.67395c-2.69073,0-2.72449.98572-5.41199.98572-1.73846,0-3.16119-.51172-3.16119-.51172L0,14.08905s1.4223.71094,3.79266.71094c3.66547,0,4.74921-1.59998,8.41467-1.59998,2.37036,0,3.79266,1.08905,3.79266,1.08905L13.86719,1.68823ZM7.68073,13.05231c-1.14124.38452-2.21924.74768-3.88806.74768-1.17719,0-2.09424-.19427-2.66809-.36267L2.93518,2.73993c.62262.13379,1.45068.26007,2.35883.26007,1.51874,0,2.32935-.29346,3.04456-.55237.64233-.23248,1.19708-.43335,2.36743-.43335.93298,0,1.77417.22882,2.26959.3985l1.72021,10.16309c-.67596-.21161-1.51447-.37585-2.48846-.37585-1.99664,0-3.28284.43329-4.52661.85229ZM13,4v7h-1v-3.31836l-2.64648,2.64648-.70703-.70703,1.62109-1.62109h-4.59937l1.62183,1.62109-.70703.70703-2.58301-2.58209v3.25397h-1v-7h1v3.29297l2.58301-2.58301.70703.70703-1.58301,1.58301h4.52173l-1.58228-1.58301.70703-.70703,2.64648,2.6474v-3.35736h1Z"/></svg>

<svg xmlns="http://www.w3.org/2000/svg" viewBox="0 0 16 16"><path d="M0 0h16v16H0z" style="fill:none"/><path d="M13.867 1.688s-1.423-.674-3.161-.674c-2.69 0-2.724.986-5.412.986-1.738 0-3.161-.512-3.161-.512L0 14.09s1.422.711 3.793.711c3.665 0 4.749-1.6 8.414-1.6 2.37 0 3.793 1.09 3.793 1.09zM7.681 13.052c-1.142.385-2.22.748-3.888.748a9.5 9.5 0 0 1-2.668-.363L2.935 2.74c.623.134 1.45.26 2.359.26 1.519 0 2.33-.293 3.045-.552.642-.233 1.197-.434 2.367-.434.933 0 1.774.23 2.27.399l1.72 10.163a8.3 8.3 0 0 0-2.489-.376c-1.996 0-3.283.433-4.526.852M13 4v7h-1V7.682l-2.646 2.646-.708-.707L10.268 8h-4.6L7.29 9.621l-.707.707L4 7.746V11H3V4h1v3.293L6.583 4.71l.707.707L5.707 7h4.522L8.646 5.417l.708-.707L12 7.357V4z"/></svg>
